X: 30156
T: Old Court, The
R: hornpipe
M: 4/4
K: Eminor
|:Am C|G Em|Am G|F E|Am C|G Em|Am G|FG Am:|
|:C Am|Em G|Am E4|A4 A|D A|Bm G|Am G|FG Am:|

